X: 25
T:Walls of Enniscorthy (#135)
M:6/8
L:1/8
S:Patrick Stack, Chicago
K:G
B3 Bdc|B3 AGF|DGG AGF|AGG Adc|
B3 BdB|B3 AGF|FGA/2B/2 cAA|FDE FGA:|
|:"tr"B3 "tr"c3|BGG ABd|g3 gdB|dgg fdc|
"tr"B3 "tr"c3|BGG ABd|fef gdB|EDE FGA:||
%
% An excellent setting of a Double Jig as played by Delaney, Early,
% and McFadden, and of which the above is a popular variant
% that was printed for the first time in the O'Neill Collections 1902-09
%,
% and named "The Merry Old Woman".

